X: 1
T: The Highlander
R: jig
M: 6/8
L: 1/8
K: Dmaj
(g/f/)|:e2A ABA|e2A Bcd|e2A ABA|dBG Bcd|
e2A g2A|e2A Bcd|ede g2e|dBG GBd:|
g2e (f<a)f|g2e dBd|g3 f2e|dBG GBd|
g2e faf|g2e dBd|gfg f2e|dBG GBd:|

